X:1
T:61
L:1/8
Q:1/4=88
M:3/4
K:F
V:1 treble nm="Piano" snm="Pno."
V:1
"^Moderato" (F3 C/F/ Ad | c>B G2) z (C | G3 E/G/ Bd | c>B A2) z (F | f f2 e d/c/B/A/ | %5
 (3BBd G2) z (F | E/^D/E/G/ B=d cz/E/ | F6) |] %8

